src/assets/icons/settings/site.svg

<?xml version="1.0" encoding="UTF-8"?>
<svg width="24px" height="24px" viewBox="0 0 24 24" version="1.1" xmlns="http://www.w3.org/2000/svg" xmlns:xlink="http://www.w3.org/1999/xlink">
    <title>形状结合</title>
    <g id="扩展程序" stroke="none" stroke-width="1" fill="none" fill-rule="evenodd">
        <g id="设置" transform="translate(-40.000000, -985.000000)" fill="#6E7585" fill-rule="nonzero">
            <g id="编组-6备份-9" transform="translate(20.000000, 969.000000)">
                <g id="编组-4备份-23" transform="translate(20.000000, 0.000000)">
                    <g id="形状结合-2" transform="translate(0.000000, 16.000000)">
                        <path d="M7,22 C6.44771525,22 6,21.5522847 6,21 C6,20.4477153 6.44771525,20 7,20 L11,20 L11,18 L5,18 C3.34314575,18 2,16.6568542 2,15 L2,5 C2,3.34314575 3.34314575,2 5,2 L19,2 C20.6568542,2 22,3.34314575 22,5 L22,15 C22,16.6568542 20.6568542,18 19,18 L13,18 L13,20 L17,20 C17.5522847,20 18,20.4477153 18,21 C18,21.5522847 17.5522847,22 17,22 L7,22 Z M19,4 L5,4 C4.44771525,4 4,4.44771525 4,5 L4,5 L4,15 C4,15.5522847 4.44771525,16 5,16 L5,16 L19,16 C19.5522847,16 20,15.5522847 20,15 L20,15 L20,5 C20,4.44771525 19.5522847,4 19,4 L19,4 Z M11,6 C11.5522847,6 12,6.44771525 12,7 C12,7.55228475 11.5522847,8 11,8 L7,8 C6.44771525,8 6,7.55228475 6,7 C6,6.44771525 6.44771525,6 7,6 L11,6 Z" id="形状结合"></path>
                    </g>
                </g>
            </g>
        </g>
    </g>
</svg>

<svg width="24" height="24" xmlns="http://www.w3.org/2000/svg"><path d="M7 22a1 1 0 0 1 0-2h4v-2H5a3 3 0 0 1-3-3V5a3 3 0 0 1 3-3h14a3 3 0 0 1 3 3v10a3 3 0 0 1-3 3h-6v2h4a1 1 0 0 1 0 2H7zM19 4H5a1 1 0 0 0-1 1v10a1 1 0 0 0 1 1h14a1 1 0 0 0 1-1V5a1 1 0 0 0-1-1zm-8 2a1 1 0 0 1 0 2H7a1 1 0 1 1 0-2h4z" fill="#6e7585" fill-rule="nonzero"/></svg>
